; generated by Slic3r 1.3.0 on 2019-04-11 at 18:51:54

; external perimeters extrusion width = 0.38mm (1.09mm^3/s)
; perimeters extrusion width = 0.49mm (3.58mm^3/s)
; infill extrusion width = 0.44mm (3.95mm^3/s)
; solid infill extrusion width = 0.49mm (1.79mm^3/s)
; top infill extrusion width = 0.49mm (1.34mm^3/s)

M104 S220 ; set temperature
G28 ; home all axes
G1 Z5 F5000 ; lift nozzle

; Filament gcode

M109 S220 ; set temperature and wait for it to be reached
G90 ; use absolute coordinates
M82 ; use absolute distances for extrusion
G92 E0
G1 Z0.200 F5400.000
G1 E-2.00000 F2400.00000
G92 E0
G1 X57.517 Y57.083 F5400.000
G1 E2.00000 F2400.00000
G1 F420
G1 X59.911 Y55.367 E2.10949
G1 X62.678 Y54.356 E2.21899
G1 X65.000 Y54.106 E2.30582
G1 X85.000 Y54.106 E3.04932
G1 X87.918 Y54.504 E3.15881
G1 X90.623 Y55.669 E3.26831
G1 X92.917 Y57.517 E3.37780
G1 X94.633 Y59.911 E3.48730
G1 X95.644 Y62.678 E3.59679
G1 X95.894 Y65.000 E3.68362
G1 X95.894 Y85.000 E4.42712
G1 X95.496 Y87.918 E4.53662
G1 X94.331 Y90.623 E4.64611
G1 X92.483 Y92.917 E4.75560
G1 X90.089 Y94.633 E4.86510
G1 X87.322 Y95.644 E4.97459
G1 X85.000 Y95.894 E5.06143
G1 X65.000 Y95.894 E5.80492
G1 X62.082 Y95.496 E5.91442
G1 X59.377 Y94.331 E6.02391
G1 X57.083 Y92.483 E6.13341
G1 X55.367 Y90.089 E6.24290
G1 X54.356 Y87.322 E6.35240
G1 X54.106 Y85.000 E6.43923
G1 X54.106 Y65.000 E7.18273
G1 X54.504 Y62.082 E7.29222
G1 X55.669 Y59.377 E7.40171
G1 X57.484 Y57.124 E7.50926
G1 X57.956 Y57.285 F5400.000
G1 F420
G1 X60.334 Y55.653 E7.61647
G1 X63.067 Y54.733 E7.72368
G1 X65.000 Y54.553 E7.79584
G1 X85.000 Y54.553 E8.53934
G1 X87.856 Y54.951 E8.64655
G1 X90.495 Y56.115 E8.75377
G1 X92.715 Y57.956 E8.86098
G1 X94.347 Y60.334 E8.96819
G1 X95.267 Y63.067 E9.07541
G1 X95.447 Y65.000 E9.14757
G1 X95.447 Y85.000 E9.89106
G1 X95.049 Y87.856 E9.99828
G1 X93.885 Y90.495 E10.10549
G1 X92.044 Y92.715 E10.21270
G1 X89.666 Y94.347 E10.31992
G1 X86.933 Y95.267 E10.42713
G1 X85.000 Y95.447 E10.49929
G1 X65.000 Y95.447 E11.24279
G1 X62.144 Y95.049 E11.35000
G1 X59.505 Y93.885 E11.45721
G1 X57.285 Y92.044 E11.56443
G1 X55.653 Y89.666 E11.67164
G1 X54.733 Y86.933 E11.77885
G1 X54.553 Y85.000 E11.85101
G1 X54.553 Y65.000 E12.59451
G1 X54.951 Y62.144 E12.70172
G1 X56.115 Y59.505 E12.80893
G1 X57.922 Y57.325 E12.91420
G1 E10.91420 F2400.00000
G92 E0
G1 X63.016 Y62.345 F5400.000
G1 E2.00000 F2400.00000
G1 F420
G1 X63.641 Y61.720 E2.03676
G1 X86.359 Y61.720 E2.98125
G1 X88.280 Y63.641 E3.09423
G1 X88.280 Y86.359 E4.03872
G1 X86.359 Y88.280 E4.15171
G1 X63.641 Y88.280 E5.09619
G1 X61.720 Y86.359 E5.20918
G1 X61.720 Y63.641 E6.15366
G1 X62.979 Y62.382 E6.22770
G1 X63.369 Y62.698 F5400.000
G1 F420
G1 X63.848 Y62.220 E6.25586
G1 X86.152 Y62.220 E7.18312
G1 X87.780 Y63.848 E7.27888
G1 X87.780 Y86.152 E8.20615
G1 X86.152 Y87.780 E8.30191
G1 X63.848 Y87.780 E9.22918
G1 X62.220 Y86.152 E9.32494
G1 X62.220 Y63.848 E10.25221
G1 X63.332 Y62.736 E10.31764
G1 X63.723 Y63.052 F5400.000
G1 F420
G1 X64.055 Y62.720 E10.33718
G1 X85.945 Y62.720 E11.24723
G1 X87.280 Y64.055 E11.32577
G1 X87.280 Y85.945 E12.23581
G1 X85.945 Y87.280 E12.31435
G1 X64.055 Y87.280 E13.22440
G1 X62.720 Y85.945 E13.30294
G1 X62.720 Y64.055 E14.21299
G1 X63.686 Y63.089 E14.26981
G1 X64.077 Y63.406 F5400.000
G1 F420
G1 X64.263 Y63.220 E14.28074
G1 X85.737 Y63.220 E15.17356
G1 X86.780 Y64.263 E15.23488
G1 X86.780 Y85.737 E16.12771
G1 X85.737 Y86.780 E16.18903
G1 X64.263 Y86.780 E17.08185
G1 X63.220 Y85.737 E17.14317
G1 X63.220 Y64.263 E18.03600
G1 X64.039 Y63.443 E18.08420
G1 X64.430 Y63.759 F5400.000
G1 F420
G1 X64.470 Y63.720 E18.08653
G1 X85.530 Y63.720 E18.96213
G1 X86.280 Y64.470 E19.00623
G1 X86.280 Y85.530 E19.88183
G1 X85.530 Y86.280 E19.92593
G1 X64.470 Y86.280 E20.80154
G1 X63.720 Y85.530 E20.84564
G1 X63.720 Y64.470 E21.72124
G1 X64.393 Y63.796 E21.76084
G1 X64.677 Y64.220 F5400.000
G1 F420
G1 X85.323 Y64.220 E22.61922
G1 X85.780 Y64.677 E22.64610
G1 X85.780 Y85.323 E23.50448
G1 X85.323 Y85.780 E23.53136
G1 X64.677 Y85.780 E24.38974
G1 X64.220 Y85.323 E24.41662
G1 X64.220 Y64.677 E25.27500
G1 X64.640 Y64.257 E25.29970
G1 X64.884 Y64.720 F5400.000
G1 F420
G1 X85.116 Y64.720 E26.14086
G1 X85.280 Y64.884 E26.15052
G1 X85.280 Y85.116 E26.99168
G1 X85.116 Y85.280 E27.00134
G1 X64.884 Y85.280 E27.84250
G1 X64.720 Y85.116 E27.85216
G1 X64.720 Y64.884 E28.69332
G1 X64.847 Y64.757 E28.70080
G1 E26.70080 F2400.00000
G92 E0
G1 X84.808 Y84.808 F5400.000
G1 E2.00000 F2400.00000
G1 F420
G1 X65.192 Y84.808 E2.55793
G1 X65.192 Y65.192 E3.11586
G1 X84.808 Y65.192 E3.67379
G1 X84.808 Y84.755 E4.23023
G1 X84.469 Y84.717 F5400.000
G1 X84.413 Y84.413 F5400.000
G1 F420
G1 X65.587 Y84.413 E4.93007
G1 X65.587 Y65.587 E5.62992
G1 X84.413 Y65.587 E6.32977
G1 X84.413 Y84.360 E7.02766
G1 X83.966 Y83.966 F5400.000
G1 F420
G1 X66.034 Y83.966 E7.69427
G1 X66.034 Y66.034 E8.36088
G1 X83.966 Y66.034 E9.02749
G1 X83.966 Y83.913 E9.69214
G1 X83.345 Y83.693 F5400.000
G1 F420
G1 X83.693 Y83.345 E9.71074
G1 X83.693 Y82.702 E9.73504
G1 X82.702 Y83.693 E9.78801
G1 X82.059 Y83.693 E9.81231
G1 X83.693 Y82.059 E9.89965
G1 X83.693 Y81.416 E9.92395
G1 X81.416 Y83.693 E10.04566
G1 X80.773 Y83.693 E10.06996
G1 X83.693 Y80.773 E10.22604
G1 X83.693 Y80.130 E10.25035
G1 X80.130 Y83.693 E10.44079
G1 X79.487 Y83.693 E10.46510
G1 X83.693 Y79.487 E10.68991
G1 X83.693 Y78.844 E10.71422
G1 X78.844 Y83.693 E10.97341
G1 X78.201 Y83.693 E10.99771
G1 X83.693 Y78.201 E11.29127
G1 X83.693 Y77.558 E11.31557
G1 X77.558 Y83.693 E11.64350
G1 X76.916 Y83.693 E11.66780
G1 X83.693 Y76.916 E12.03010
G1 X83.693 Y76.273 E12.05440
G1 X76.273 Y83.693 E12.45107
G1 X75.630 Y83.693 E12.47537
G1 X83.693 Y75.630 E12.90641
G1 X83.693 Y74.987 E12.93071
G1 X74.987 Y83.693 E13.39612
G1 X74.344 Y83.693 E13.42043
G1 X83.693 Y74.344 E13.92020
G1 X83.693 Y73.701 E13.94451
G1 X73.701 Y83.693 E14.47865
G1 X73.058 Y83.693 E14.50296
G1 X83.693 Y73.058 E15.07148
G1 X83.693 Y72.415 E15.09578
G1 X72.415 Y83.693 E15.69867
G1 X71.772 Y83.693 E15.72297
G1 X83.693 Y71.772 E16.36023
G1 X83.693 Y71.129 E16.38453
G1 X71.129 Y83.693 E17.05616
G1 X70.486 Y83.693 E17.08046
G1 X83.693 Y70.486 E17.78646
G1 X83.693 Y69.843 E17.81076
G1 X69.843 Y83.693 E18.55113
G1 X69.201 Y83.693 E18.57543
G1 X83.693 Y69.201 E19.35017
G1 X83.693 Y68.558 E19.37448
G1 X68.558 Y83.693 E20.18358
G1 X67.915 Y83.693 E20.20789
G1 X83.693 Y67.915 E21.05136
G1 X83.693 Y67.272 E21.07567
G1 X67.272 Y83.693 E21.95352
G1 X66.629 Y83.693 E21.97782
G1 X83.693 Y66.629 E22.89004
G1 X83.693 Y66.307 E22.90219
G1 X83.371 Y66.307 E22.91434
G1 X66.307 Y83.371 E23.82656
G1 X66.307 Y82.728 E23.85086
G1 X82.728 Y66.307 E24.72871
G1 X82.085 Y66.307 E24.75302
G1 X66.307 Y82.085 E25.59649
G1 X66.307 Y81.442 E25.62080
G1 X81.442 Y66.307 E26.42991
G1 X80.800 Y66.307 E26.45421
G1 X66.307 Y80.800 E27.22895
G1 X66.307 Y80.157 E27.25325
G1 X80.157 Y66.307 E27.99362
G1 X79.514 Y66.307 E28.01793
G1 X66.307 Y79.514 E28.72393
G1 X66.307 Y78.871 E28.74823
G1 X78.871 Y66.307 E29.41986
G1 X78.228 Y66.307 E29.44416
G1 X66.307 Y78.228 E30.08142
G1 X66.307 Y77.585 E30.10572
G1 X77.585 Y66.307 E30.70861
G1 X76.942 Y66.307 E30.73292
G1 X66.307 Y76.942 E31.30144
G1 X66.307 Y76.299 E31.32574
G1 X76.299 Y66.307 E31.85989
G1 X75.656 Y66.307 E31.88419
G1 X66.307 Y75.656 E32.38397
G1 X66.307 Y75.013 E32.40827
G1 X75.013 Y66.307 E32.87368
G1 X74.370 Y66.307 E32.89799
G1 X66.307 Y74.370 E33.32903
G1 X66.307 Y73.727 E33.35333
G1 X73.727 Y66.307 E33.75000
G1 X73.084 Y66.307 E33.77430
G1 X66.307 Y73.084 E34.13660
G1 X66.307 Y72.442 E34.16091
G1 X72.442 Y66.307 E34.48883
G1 X71.799 Y66.307 E34.51314
G1 X66.307 Y71.799 E34.80670
G1 X66.307 Y71.156 E34.83100
G1 X71.156 Y66.307 E35.09019
G1 X70.513 Y66.307 E35.11449
G1 X66.307 Y70.513 E35.33931
G1 X66.307 Y69.870 E35.36362
G1 X69.870 Y66.307 E35.55406
G1 X69.227 Y66.307 E35.57837
G1 X66.307 Y69.227 E35.73445
G1 X66.307 Y68.584 E35.75875
G1 X68.584 Y66.307 E35.88046
G1 X67.941 Y66.307 E35.90476
G1 X66.307 Y67.941 E35.99210
G1 X66.307 Y67.298 E36.01641
G1 X67.298 Y66.307 E36.06938
G1 X66.655 Y66.307 E36.09368
G1 X66.308 Y66.655 E36.11227
M104 S215 ; set temperature
G1 Z0.400 F5400.000
G1 X83.966 Y83.966 F5400.000
G1 F2400
G1 X66.034 Y83.966 E36.77888
G1 X66.034 Y66.034 E37.44548
G1 X83.966 Y66.034 E38.11209
G1 X83.966 Y83.913 E38.77675
G1 X84.413 Y84.413 F5400.000
G1 F2400
G1 X65.587 Y84.413 E39.47659
G1 X65.587 Y65.587 E40.17644
G1 X84.413 Y65.587 E40.87629
G1 X84.413 Y84.360 E41.57418
G1 X84.808 Y84.808 F5400.000
G1 F960
G1 X65.192 Y84.808 E42.13211
G1 X65.192 Y65.192 E42.69004
G1 X84.808 Y65.192 E43.24797
G1 X84.808 Y84.755 E43.80441
G1 X84.469 Y84.717 F5400.000
G1 X83.693 Y66.655 F5400.000
G1 F1200
G1 X83.345 Y66.307 E43.82301
G1 X82.702 Y66.307 E43.84731
G1 X83.693 Y67.298 E43.90028
G1 X83.693 Y67.941 E43.92458
G1 X82.059 Y66.307 E44.01192
G1 X81.416 Y66.307 E44.03622
G1 X83.693 Y68.584 E44.15793
G1 X83.693 Y69.227 E44.18223
G1 X80.773 Y66.307 E44.33831
G1 X80.130 Y66.307 E44.36261
G1 X83.693 Y69.870 E44.55306
G1 X83.693 Y70.513 E44.57737
G1 X79.487 Y66.307 E44.80218
G1 X78.844 Y66.307 E44.82649
G1 X83.693 Y71.156 E45.08567
G1 X83.693 Y71.799 E45.10998
G1 X78.201 Y66.307 E45.40354
G1 X77.558 Y66.307 E45.42784
G1 X83.693 Y72.442 E45.75577
G1 X83.693 Y73.084 E45.78007
G1 X76.916 Y66.307 E46.14237
G1 X76.273 Y66.307 E46.16667
G1 X83.693 Y73.727 E46.56334
G1 X83.693 Y74.370 E46.58764
G1 X75.630 Y66.307 E47.01868
G1 X74.987 Y66.307 E47.04298
G1 X83.693 Y75.013 E47.50839
G1 X83.693 Y75.656 E47.53270
G1 X74.344 Y66.307 E48.03247
G1 X73.701 Y66.307 E48.05678
G1 X83.693 Y76.299 E48.59092
G1 X83.693 Y76.942 E48.61523
G1 X73.058 Y66.307 E49.18375
G1 X72.415 Y66.307 E49.20805
G1 X83.693 Y77.585 E49.81094
G1 X83.693 Y78.228 E49.83524
G1 X71.772 Y66.307 E50.47250
G1 X71.129 Y66.307 E50.49680
G1 X83.693 Y78.871 E51.16843
G1 X83.693 Y79.514 E51.19273
G1 X70.486 Y66.307 E51.89873
G1 X69.843 Y66.307 E51.92303
G1 X83.693 Y80.157 E52.66340
G1 X83.693 Y80.799 E52.68771
G1 X69.201 Y66.307 E53.46244
G1 X68.558 Y66.307 E53.48675
G1 X83.693 Y81.442 E54.29585
G1 X83.693 Y82.085 E54.32016
G1 X67.915 Y66.307 E55.16364
G1 X67.272 Y66.307 E55.18794
G1 X83.693 Y82.728 E56.06579
G1 X83.693 Y83.371 E56.09009
G1 X66.629 Y66.307 E57.00231
G1 X66.307 Y66.307 E57.01446
G1 X66.307 Y66.629 E57.02661
G1 X83.371 Y83.693 E57.93883
G1 X82.728 Y83.693 E57.96313
G1 X66.307 Y67.272 E58.84098
G1 X66.307 Y67.915 E58.86529
G1 X82.085 Y83.693 E59.70877
G1 X81.442 Y83.693 E59.73307
G1 X66.307 Y68.558 E60.54218
G1 X66.307 Y69.200 E60.56648
G1 X80.800 Y83.693 E61.34122
G1 X80.157 Y83.693 E61.36553
G1 X66.307 Y69.843 E62.10590
G1 X66.307 Y70.486 E62.13020
G1 X79.514 Y83.693 E62.83620
G1 X78.871 Y83.693 E62.86050
G1 X66.307 Y71.129 E63.53213
G1 X66.307 Y71.772 E63.55643
G1 X78.228 Y83.693 E64.19369
G1 X77.585 Y83.693 E64.21800
G1 X66.307 Y72.415 E64.82089
G1 X66.307 Y73.058 E64.84519
G1 X76.942 Y83.693 E65.41371
G1 X76.299 Y83.693 E65.43801
G1 X66.307 Y73.701 E65.97216
G1 X66.307 Y74.344 E65.99646
G1 X75.656 Y83.693 E66.49624
G1 X75.013 Y83.693 E66.52055
G1 X66.307 Y74.987 E66.98596
G1 X66.307 Y75.630 E67.01026
G1 X74.370 Y83.693 E67.44130
G1 X73.727 Y83.693 E67.46560
G1 X66.307 Y76.273 E67.86227
G1 X66.307 Y76.916 E67.88658
G1 X73.084 Y83.693 E68.24888
G1 X72.442 Y83.693 E68.27318
G1 X66.307 Y77.558 E68.60111
G1 X66.307 Y78.201 E68.62541
G1 X71.799 Y83.693 E68.91897
G1 X71.156 Y83.693 E68.94327
G1 X66.307 Y78.844 E69.20246
G1 X66.307 Y79.487 E69.22677
G1 X70.513 Y83.693 E69.45159
G1 X69.870 Y83.693 E69.47589
G1 X66.307 Y80.130 E69.66634
G1 X66.307 Y80.773 E69.69064
G1 X69.227 Y83.693 E69.84672
G1 X68.584 Y83.693 E69.87102
G1 X66.307 Y81.416 E69.99273
G1 X66.307 Y82.059 E70.01704
G1 X67.941 Y83.693 E70.10438
G1 X67.298 Y83.693 E70.12868
G1 X66.307 Y82.702 E70.18165
G1 X66.307 Y83.345 E70.20595
G1 X66.655 Y83.692 E70.22454
G1 Z0.600 F5400.000
G1 X83.966 Y83.966 F5400.000
G1 F2400
G1 X66.034 Y83.966 E70.89115
G1 X66.034 Y66.034 E71.55776
G1 X83.966 Y66.034 E72.22436
G1 X83.966 Y83.913 E72.88902
G1 X84.413 Y84.413 F5400.000
G1 F2400
G1 X65.587 Y84.413 E73.58887
G1 X65.587 Y65.587 E74.28871
G1 X84.413 Y65.587 E74.98856
G1 X84.413 Y84.360 E75.68646
G1 X84.808 Y84.808 F5400.000
G1 F960
G1 X65.192 Y84.808 E76.24439
G1 X65.192 Y65.192 E76.80232
G1 X84.808 Y65.192 E77.36025
G1 X84.808 Y84.755 E77.91668
G1 X84.469 Y84.717 F5400.000
G1 X83.345 Y83.693 F5400.000
G1 F1200
G1 X83.693 Y83.345 E77.93528
G1 X83.693 Y82.702 E77.95958
G1 X82.702 Y83.693 E78.01255
G1 X82.059 Y83.693 E78.03685
G1 X83.693 Y82.059 E78.12419
G1 X83.693 Y81.416 E78.14850
G1 X81.416 Y83.693 E78.27020
G1 X80.773 Y83.693 E78.29451
G1 X83.693 Y80.773 E78.45058
G1 X83.693 Y80.130 E78.47489
G1 X80.130 Y83.693 E78.66534
G1 X79.487 Y83.693 E78.68964
G1 X83.693 Y79.487 E78.91446
G1 X83.693 Y78.844 E78.93876
G1 X78.844 Y83.693 E79.19795
G1 X78.201 Y83.693 E79.22225
G1 X83.693 Y78.201 E79.51581
G1 X83.693 Y77.558 E79.54011
G1 X77.558 Y83.693 E79.86804
G1 X76.916 Y83.693 E79.89234
G1 X83.693 Y76.916 E80.25464
G1 X83.693 Y76.273 E80.27894
G1 X76.273 Y83.693 E80.67561
G1 X75.630 Y83.693 E80.69991
G1 X83.693 Y75.630 E81.13095
G1 X83.693 Y74.987 E81.15526
G1 X74.987 Y83.693 E81.62066
G1 X74.344 Y83.693 E81.64497
G1 X83.693 Y74.344 E82.14474
G1 X83.693 Y73.701 E82.16905
G1 X73.701 Y83.693 E82.70320
G1 X73.058 Y83.693 E82.72750
G1 X83.693 Y73.058 E83.29602
G1 X83.693 Y72.415 E83.32032
G1 X72.415 Y83.693 E83.92321
G1 X71.772 Y83.693 E83.94751
G1 X83.693 Y71.772 E84.58477
G1 X83.693 Y71.129 E84.60907
G1 X71.129 Y83.693 E85.28070
G1 X70.486 Y83.693 E85.30500
G1 X83.693 Y70.486 E86.01100
G1 X83.693 Y69.843 E86.03530
G1 X69.843 Y83.693 E86.77567
G1 X69.201 Y83.693 E86.79998
G1 X83.693 Y69.201 E87.57471
G1 X83.693 Y68.558 E87.59902
G1 X68.558 Y83.693 E88.40813
G1 X67.915 Y83.693 E88.43243
G1 X83.693 Y67.915 E89.27591
G1 X83.693 Y67.272 E89.30021
G1 X67.272 Y83.693 E90.17806
G1 X66.629 Y83.693 E90.20236
G1 X83.693 Y66.629 E91.11458
G1 X83.693 Y66.307 E91.12673
G1 X83.371 Y66.307 E91.13888
G1 X66.307 Y83.371 E92.05110
G1 X66.307 Y82.728 E92.07540
G1 X82.728 Y66.307 E92.95325
G1 X82.085 Y66.307 E92.97756
G1 X66.307 Y82.085 E93.82104
G1 X66.307 Y81.442 E93.84534
G1 X81.442 Y66.307 E94.65445
G1 X80.800 Y66.307 E94.67875
G1 X66.307 Y80.800 E95.45349
G1 X66.307 Y80.157 E95.47780
G1 X80.157 Y66.307 E96.21816
G1 X79.514 Y66.307 E96.24247
G1 X66.307 Y79.514 E96.94847
G1 X66.307 Y78.871 E96.97277
G1 X78.871 Y66.307 E97.64440
G1 X78.228 Y66.307 E97.66870
G1 X66.307 Y78.228 E98.30596
G1 X66.307 Y77.585 E98.33027
G1 X77.585 Y66.307 E98.93316
G1 X76.942 Y66.307 E98.95746
G1 X66.307 Y76.942 E99.52598
G1 X66.307 Y76.299 E99.55028
G1 X76.299 Y66.307 E100.08443
G1 X75.656 Y66.307 E100.10873
G1 X66.307 Y75.656 E100.60851
G1 X66.307 Y75.013 E100.63282
G1 X75.013 Y66.307 E101.09823
G1 X74.370 Y66.307 E101.12253
G1 X66.307 Y74.370 E101.55357
G1 X66.307 Y73.727 E101.57787
G1 X73.727 Y66.307 E101.97454
G1 X73.084 Y66.307 E101.99884
G1 X66.307 Y73.084 E102.36114
G1 X66.307 Y72.442 E102.38545
G1 X72.442 Y66.307 E102.71338
G1 X71.799 Y66.307 E102.73768
G1 X66.307 Y71.799 E103.03124
G1 X66.307 Y71.156 E103.05554
G1 X71.156 Y66.307 E103.31473
G1 X70.513 Y66.307 E103.33903
G1 X66.307 Y70.513 E103.56385
G1 X66.307 Y69.870 E103.58816
G1 X69.870 Y66.307 E103.77861
G1 X69.227 Y66.307 E103.80291
G1 X66.307 Y69.227 E103.95899
G1 X66.307 Y68.584 E103.98329
G1 X68.584 Y66.307 E104.10500
G1 X67.941 Y66.307 E104.12931
G1 X66.307 Y67.941 E104.21664
G1 X66.307 Y67.298 E104.24095
G1 X67.298 Y66.307 E104.29392
G1 X66.655 Y66.307 E104.31822
